Quickit/src/img/icons/pinterest.svg

<svg width="43" height="43" viewBox="0 0 43 43" fill="none" xmlns="http://www.w3.org/2000/svg">
<path d="M12.8333 38.8333L21.5 19.3333M18.6833 25.8333C19.6302 28.5698 21.7817 30.1667 24.2083 30.1667C28.6955 30.1667 32.3333 26.7997 32.3333 21.5C32.3352 19.918 31.9905 18.3547 31.3236 16.9201C30.6566 15.4855 29.6835 14.2144 28.4727 13.1962C27.2619 12.1779 25.8428 11.4372 24.3151 11.0261C22.7874 10.615 21.1882 10.5435 19.6299 10.8166C18.0716 11.0897 16.592 11.7008 15.2952 12.6069C13.9983 13.5131 12.9157 14.6922 12.1233 16.0615C11.331 17.4309 10.8481 18.9571 10.7088 20.533C10.5694 22.1089 10.7769 23.6962 11.3167 25.1833M41 21.5C41 32.2696 32.2696 41 21.5 41C10.7304 41 2 32.2696 2 21.5C2 10.7304 10.7304 2 21.5 2C32.2696 2 41 10.7304 41 21.5Z" stroke="white" stroke-width="3" stroke-linecap="round" stroke-linejoin="round"/>
</svg>

<svg xmlns="http://www.w3.org/2000/svg" width="43" height="43" fill="none" xmlns:v="https://vecta.io/nano"><path d="M12.833 38.833l8.667-19.5m-2.817 6.5c.947 2.736 3.098 4.333 5.525 4.333 4.487 0 8.125-3.367 8.125-8.667.002-1.582-.343-3.145-1.01-4.58s-1.64-2.706-2.851-3.724-2.63-1.759-4.158-2.17-3.127-.483-4.685-.21-3.038.884-4.335 1.79-2.379 2.085-3.172 3.455-1.275 2.896-1.415 4.472a10.83 10.83 0 0 0 .608 4.65M41 21.5C41 32.27 32.27 41 21.5 41S2 32.27 2 21.5 10.73 2 21.5 2 41 10.73 41 21.5z" stroke="#fff" stroke-width="3" stroke-linecap="round" stroke-linejoin="round"/></svg>
